Papirus/32x32/apps/tuxedo-webfai-creator.svg

<svg width="32" height="32" version="1.1" xmlns="http://www.w3.org/2000/svg">
 <rect x="6" y="11.000008" width="20.000013" height="20.000013" ry="1.371682" style="opacity:.2"/>
 <rect x="6" y="10" width="20.000013" height="20.000013" ry="1.371682" style="fill:#c2352a"/>
 <path d="m16.3055 13.008091c-0.7298 0.1241-2.9346 2.2874-3.1947 3.128 0 0.477 2.8552 3.3088 3.3576 3.3088 0.2116 0 0.4323-0.1154 0.5602-0.2269 0.2245-0.1959 0.3616-0.5693 0.3041-0.8274-0.0323-0.1444-0.2566-0.4322-0.6369-0.8168l-0.5864-0.5936 0.5041 0.0485c2.0687 0.199 3.8655 1.7157 4.4591 3.7627 0.228 0.7863 0.2293 1.9643 3e-3 2.744-0.6647 2.2904-2.6829 3.8025-5.0751 3.8025-2.7998 0-5.0017-2.0352-5.2484-4.851-8e-3 -0.6893-0.2209-1.1352-0.88481-1.1352-0.62085 0-0.81851 0.4941-0.86139 1.0214-0.04281 0.5269 0.15406 1.443 0.41206 2.1353 0.84764 2.2744 2.80824 3.9389 5.20884 4.4213 0.323 0.0649 0.8479 0.0703 1.3712 0.0703 0.4991 0 0.9967-0.0024 1.3159-0.0626 4.8865-0.9204 7.2698-6.4683 4.5333-10.5507-1.1522-1.7188-3.1374-2.8929-5.1782-3.0633l-0.5239-0.0437 0.5745-0.5858c0.42-0.4285 0.6019-0.6503 0.622-0.8362 0.061-0.5651-0.6433-0.9163-1.0361-0.8496z" style="opacity:.2"/>
 <path d="m16.3055 12.008091c-0.7298 0.1241-2.9346 2.2874-3.1947 3.128 0 0.477 2.8552 3.3088 3.3576 3.3088 0.2116 0 0.4323-0.1154 0.5602-0.2269 0.2245-0.1959 0.3616-0.5693 0.3041-0.8274-0.0323-0.1444-0.2566-0.4322-0.6369-0.8168l-0.5864-0.5936 0.5041 0.0485c2.0687 0.199 3.8655 1.7157 4.4591 3.7627 0.228 0.7863 0.2293 1.9643 3e-3 2.744-0.6647 2.2904-2.6829 3.8025-5.0751 3.8025-2.7998 0-5.0017-2.0352-5.2484-4.851-8e-3 -0.6893-0.2209-1.1352-0.88481-1.1352-0.62085 0-0.81851 0.4941-0.86139 1.0214-0.04281 0.5269 0.15406 1.443 0.41206 2.1353 0.84764 2.2744 2.80824 3.9389 5.20884 4.4213 0.323 0.0649 0.8479 0.0703 1.3712 0.0703 0.4991 0 0.9967-0.0024 1.3159-0.0626 4.8865-0.9204 7.2698-6.4683 4.5333-10.5507-1.1522-1.7188-3.1374-2.8929-5.1782-3.0633l-0.5239-0.0437 0.5745-0.5858c0.42-0.4285 0.6019-0.6503 0.622-0.8362 0.061-0.5651-0.6433-0.9163-1.0361-0.8496z" style="fill:#ececec"/>
 <rect x="10.000007" y="2" width="12.000008" height="8.0000048" style="fill:#b3b3b3"/>
 <path d="m12 4h2v3h-2z" style="fill:#666666"/>
 <path d="m18 4h2v3h-2z" style="fill:#666666"/>
 <path d="m7.3711 10c-0.75991 0-1.3711 0.6112-1.3711 1.3711v1c0-0.7599 0.61119-1.3711 1.3711-1.3711h17.2578c0.7599 0 1.3711 0.6112 1.3711 1.3711v-1c0-0.7599-0.6112-1.3711-1.3711-1.3711h-17.2578z" style="fill:#ffffff;opacity:.2"/>
 <path d="m10 2v1h12v-1z" style="fill:#ffffff;opacity:.2"/>
 <rect x="12" y="4" width="2" height="1" style="opacity:.2"/>
 <rect x="18" y="4" width="2" height="1" style="opacity:.2"/>
</svg>

<svg xmlns="http://www.w3.org/2000/svg" width="32" height="32" version="1.1">
 <rect style="opacity:0.2" width="20" height="20" x="6" y="11" ry="1.372"/>
 <rect style="fill:#b3b3b3" width="12" height="9" x="10" y="2"/>
 <rect style="fill:#c2352a" width="20" height="20" x="6" y="10" ry="1.372"/>
 <path style="opacity:0.1" d="M 16.305,13.008 C 15.576,13.132 13.371,15.295 13.111,16.136 13.111,16.613 15.966,19.445 16.468,19.445 16.68,19.445 16.901,19.329 17.029,19.218 17.253,19.022 17.39,18.649 17.333,18.391 17.3,18.246 17.076,17.958 16.696,17.574 L 16.109,16.98 16.613,17.029 C 18.682,17.228 20.479,18.744 21.073,20.791 21.301,21.578 21.302,22.756 21.076,23.535 20.411,25.826 18.393,27.338 16,27.338 13.201,27.338 10.999,25.303 10.752,22.487 10.744,21.798 10.531,21.352 9.8673,21.352 9.2464,21.352 9.0488,21.846 9.0059,22.373 8.9631,22.9 9.16,23.816 9.418,24.508 10.266,26.783 12.226,28.447 14.627,28.93 14.95,28.995 15.475,29 15.998,29 16.497,29 16.995,28.998 17.314,28.937 22.2,28.017 24.584,22.469 21.847,18.387 20.695,16.668 18.71,15.494 16.669,15.323 L 16.145,15.28 16.72,14.694 C 17.14,14.265 17.321,14.044 17.342,13.858 17.403,13.293 16.698,12.941 16.305,13.008 Z"/>
 <path style="fill:#ececec" d="M 16.305,12.008 C 15.576,12.132 13.371,14.295 13.111,15.136 13.111,15.613 15.966,18.445 16.468,18.445 16.68,18.445 16.901,18.329 17.029,18.218 17.253,18.022 17.39,17.649 17.333,17.391 17.3,17.246 17.076,16.958 16.696,16.574 L 16.109,15.98 16.613,16.029 C 18.682,16.228 20.479,17.744 21.073,19.791 21.301,20.578 21.302,21.756 21.076,22.535 20.411,24.826 18.393,26.338 16,26.338 13.201,26.338 10.999,24.303 10.752,21.487 10.744,20.798 10.531,20.352 9.8673,20.352 9.2464,20.352 9.0488,20.846 9.0059,21.373 8.9631,21.9 9.16,22.816 9.418,23.508 10.266,25.783 12.226,27.447 14.627,27.93 14.95,27.995 15.475,28 15.998,28 16.497,28 16.995,27.998 17.314,27.937 22.2,27.017 24.584,21.469 21.847,17.387 20.695,15.668 18.71,14.494 16.669,14.323 L 16.145,14.28 16.72,13.694 C 17.14,13.265 17.321,13.044 17.342,12.858 17.403,12.293 16.698,11.941 16.305,12.008 Z"/>
 <path style="fill:#666666" d="M 12,4 H 14 V 7 H 12 Z"/>
 <path style="fill:#666666" d="M 18,4 H 20 V 7 H 18 Z"/>
 <path style="opacity:0.1;fill:#ffffff" d="M 7.3711,10 C 6.6112,10 6,10.611 6,11.371 V 12.371 C 6,11.611 6.6112,11 7.3711,11 H 24.629 C 25.389,11 26,11.611 26,12.371 V 11.371 C 26,10.611 25.389,10 24.629,10 Z"/>
 <path style="opacity:0.2;fill:#ffffff" d="M 10,2 V 3 H 22 V 2 Z"/>
 <rect style="opacity:0.2" width="2" height="1" x="12" y="4"/>
 <rect style="opacity:0.2" width="2" height="1" x="18" y="4"/>
</svg>
